images/markers/marker-truck.svg

<svg xmlns="http://www.w3.org/2000/svg" viewBox="0 0 640 640"><path fill="currentColor" d="M192 160v96h133.4l-57.6-96H192zm130.6-32.9L400 256h32c26.5 0 48 21.5 48 48v24h48v-80c0-48.6 39.4-88 88-88 13.3 0 24 10.7 24 24s-10.7 24-24 24c-22.1 0-40 17.9-40 40v208c0 22.1 17.9 40 40 40 13.3 0 24 10.7 24 24s-10.7 24-24 24c-48.6 0-88-39.4-88-88v-80h-48v80c0 48.6-39.4 88-88 88s-88-39.4-88-88c0-2.7.1-5.4.4-8h-96.7c.2 2.6.4 5.3.4 8 0 48.6-39.4 88-88 88s-88-39.4-88-88c0-3.6.2-7.1.6-10.5C13.7 439.1.1 421.1.1 400v-96c0-26.5 21.5-48 48-48h80V128c0-17.7 14.3-32 32-32h107.8c22.5 0 43.3 11.8 54.9 31.1zM160 456c0-22.1-17.9-40-40-40s-40 17.9-40 40 17.9 40 40 40 40-17.9 40-40zm232 40c22.1 0 40-17.9 40-40s-17.9-40-40-40-40 17.9-40 40 17.9 40.1 40.1 40z"/></svg>

<svg xmlns="http://www.w3.org/2000/svg" viewBox="0 0 640 640" preserveAspectRatio="xMidYMid meet">
<path fill="currentColor" d="M192 160L192 256L325.4 256L267.8 160L192 160zM322.6 127.1L400 256L432 256C458.5 256 480 277.5 480 304L480 328L528 328L528 248C528 199.4 567.4 160 616 160C629.3 160 640 170.7 640 184C640 197.3 629.3 208 616 208C593.9 208 576 225.9 576 248L576 456C576 478.1 593.9 496 616 496C629.3 496 640 506.7 640 520C640 533.3 629.3 544 616 544C567.4 544 528 504.6 528 456L528 376L480 376L480 456C480 504.6 440.6 544 392 544C343.4 544 304 504.6 304 456C304 453.3 304.1 450.6 304.4 448L207.7 448C207.9 450.6 208.1 453.3 208.1 456C208.1 504.6 168.7 544 120.1 544C71.5 544 32.1 504.6 32.1 456C32.1 452.4 32.3 448.9 32.7 445.5C13.7 439.1 .1 421.1 .1 400L.1 304C.1 277.5 21.6 256 48.1 256L128.1 256L128.1 128C128.1 110.3 142.4 96 160.1 96L267.9 96C290.4 96 311.2 107.8 322.8 127.1zM160 456C160 433.9 142.1 416 120 416C97.9 416 80 433.9 80 456C80 478.1 97.9 496 120 496C142.1 496 160 478.1 160 456zM392 496C414.1 496 432 478.1 432 456C432 433.9 414.1 416 392 416C369.9 416 352 433.9 352 456C352 478.1 369.9 496.1 392.1 496z"/></svg>
